CSETWebApi/CSETWeb_Api/CSETWeb_ApiCore/Diagram/src/main/webapp/img/lib/ibm/social/networking.svg

<svg xmlns="http://www.w3.org/2000/svg" xmlns:xlink="http://www.w3.org/1999/xlink" viewBox="0 0 59.3 59.3"><symbol id="A" viewBox="-26.5 -26.5 53 53"><circle cx="0" cy="0" r="26.5" fill="#bf6328"/></symbol><use xlink:href="#A" width="53" height="53" x="-26.5" y="-26.5" transform="matrix(1.1198 0 0 1.1198 29.6744 29.6632)"/><path d="M33.5 13.6h-7.3a1.79 1.79 0 0 0-1.8 1.8v1.8l11 .1v-1.8c-.1-1-.9-1.9-1.9-1.9zm-3.7-1.9c-2.6 0-4.7-2.1-4.7-4.7s2.1-4.7 4.7-4.7 4.7 2.1 4.7 4.7c-.1 2.7-2.2 4.7-4.7 4.7zm0-8.7c-2.2 0-4.1 1.8-4.1 4.1s1.8 4.1 4.1 4.1c2.2 0 4.1-1.8 4.1-4.1S32 3 29.8 3zm3.8 42.3h-7.3a1.79 1.79 0 0 0-1.8 1.8v1.8l11 .1v-1.8c0-1.1-.9-1.9-1.9-1.9zm-3.7-1.9c-2.6 0-4.7-2.1-4.7-4.7s2.1-4.7 4.7-4.7 4.7 2.1 4.7 4.7-2.1 4.7-4.7 4.7zm0-8.7c-2.2 0-4.1 1.8-4.1 4.1s1.8 4.1 4.1 4.1c2.2 0 4.1-1.8 4.1-4.1s-1.8-4.1-4.1-4.1zm20-2.5h-7.3a1.79 1.79 0 0 0-1.8 1.8v1.8l11 .1V34c0-1-.8-1.8-1.9-1.8zm-3.7-1.9c-2.6 0-4.7-2.1-4.7-4.7s2.1-4.7 4.7-4.7 4.7 2.1 4.7 4.7-2.1 4.7-4.7 4.7zm0-8.8c-2.2 0-4.1 1.8-4.1 4.1s1.8 4.1 4.1 4.1c2.2 0 4.1-1.8 4.1-4.1 0-2.2-1.8-4.1-4.1-4.1zM17 32.2H9.7A1.79 1.79 0 0 0 7.9 34v1.8l11 .1V34c-.1-1-.9-1.8-1.9-1.8zm-3.7-1.9c-2.6 0-4.7-2.1-4.7-4.7s2.1-4.7 4.7-4.7S18 23 18 25.6s-2.1 4.7-4.7 4.7zm0-8.7c-2.2 0-4.1 1.8-4.1 4.1 0 2.2 1.8 4.1 4.1 4.1 2.2 0 4.1-1.8 4.1-4.1s-1.8-4.2-4.1-4.1c0-.1 0-.1 0 0z" fill="#fff"/><circle cx="29.8" cy="31.5" r="16.5" fill="none" stroke="#fff"/><g fill="#fff"><circle cx="13.3" cy="25.6" r="4"/><circle cx="29.8" cy="7.1" r="4"/><circle cx="29.9" cy="38.7" r="4"/><circle cx="46.2" cy="25.6" r="4"/></g></svg>

<?xml version="1.0" encoding="utf-8"?>
<!-- Generator: Adobe Illustrator 21.1.0, SVG Export Plug-In . SVG Version: 6.00 Build 0)  -->
<svg version="1.1" id="Layer_1" xmlns="http://www.w3.org/2000/svg" xmlns:xlink="http://www.w3.org/1999/xlink" x="0px" y="0px"
	 viewBox="0 0 59.3 59.3" style="enable-background:new 0 0 59.3 59.3;" xml:space="preserve">
<style type="text/css">
	.st0{fill:#BF6328;}
	.st1{fill:#FFFFFF;}
	.st2{fill:none;stroke:#FFFFFF;stroke-miterlimit:10;}
</style>
<symbol  id="New_Symbol" viewBox="-26.5 -26.5 53 53">
	<ellipse class="st0" cx="0" cy="0" rx="26.5" ry="26.5"/>
</symbol>
<title>INDIVIDUAL ICONS 2</title>
<use xlink:href="#New_Symbol"  width="53" height="53" x="-26.5" y="-26.5" transform="matrix(1.1198 0 0 1.1198 29.6744 29.6632)" style="overflow:visible;"/>
<path class="st1" d="M33.5,13.6l-7.3,0c-1,0-1.8,0.8-1.8,1.8v1.8l11,0.1v-1.8C35.3,14.5,34.5,13.6,33.5,13.6
	C33.5,13.6,33.5,13.6,33.5,13.6z"/>
<path class="st1" d="M29.8,11.7c-2.6,0-4.7-2.1-4.7-4.7s2.1-4.7,4.7-4.7s4.7,2.1,4.7,4.7l0,0C34.4,9.7,32.3,11.7,29.8,11.7z M29.8,3
	c-2.2,0-4.1,1.8-4.1,4.1s1.8,4.1,4.1,4.1c2.2,0,4.1-1.8,4.1-4.1C33.9,4.8,32,3,29.8,3L29.8,3L29.8,3z"/>
<path class="st1" d="M33.6,45.3l-7.3,0c-1,0-1.8,0.8-1.8,1.8v1.8l11,0.1v-1.8C35.5,46.1,34.6,45.3,33.6,45.3
	C33.6,45.3,33.6,45.3,33.6,45.3z"/>
<path class="st1" d="M29.9,43.4c-2.6,0-4.7-2.1-4.7-4.7s2.1-4.7,4.7-4.7s4.7,2.1,4.7,4.7l0,0C34.6,41.3,32.5,43.4,29.9,43.4z
	 M29.9,34.7c-2.2,0-4.1,1.8-4.1,4.1s1.8,4.1,4.1,4.1c2.2,0,4.1-1.8,4.1-4.1C34,36.5,32.2,34.7,29.9,34.7z"/>
<path class="st1" d="M49.9,32.2l-7.3,0c-1,0-1.8,0.8-1.8,1.8v1.8l11,0.1V34C51.8,33,51,32.2,49.9,32.2
	C49.9,32.2,49.9,32.2,49.9,32.2z"/>
<path class="st1" d="M46.2,30.3c-2.6,0-4.7-2.1-4.7-4.7s2.1-4.7,4.7-4.7s4.7,2.1,4.7,4.7l0,0C50.9,28.2,48.8,30.3,46.2,30.3z
	 M46.2,21.5c-2.2,0-4.1,1.8-4.1,4.1s1.8,4.1,4.1,4.1c2.2,0,4.1-1.8,4.1-4.1C50.3,23.4,48.5,21.5,46.2,21.5z"/>
<path class="st1" d="M17,32.2l-7.3,0c-1,0-1.8,0.8-1.8,1.8v1.8l11,0.1V34C18.8,33,18,32.2,17,32.2C17,32.2,17,32.2,17,32.2z"/>
<path class="st1" d="M13.3,30.3c-2.6,0-4.7-2.1-4.7-4.7s2.1-4.7,4.7-4.7S18,23,18,25.6l0,0C18,28.2,15.9,30.3,13.3,30.3z M13.3,21.6
	c-2.2,0-4.1,1.8-4.1,4.1c0,2.2,1.8,4.1,4.1,4.1c2.2,0,4.1-1.8,4.1-4.1C17.4,23.4,15.6,21.5,13.3,21.6C13.3,21.5,13.3,21.5,13.3,21.6
	L13.3,21.6z"/>
<circle class="st2" cx="29.8" cy="31.5" r="16.5"/>
<circle class="st1" cx="13.3" cy="25.6" r="4"/>
<circle class="st1" cx="29.8" cy="7.1" r="4"/>
<circle class="st1" cx="29.9" cy="38.7" r="4"/>
<circle class="st1" cx="46.2" cy="25.6" r="4"/>
</svg>
